app/public/dtpr-icons/agency.svg

<svg width="36" height="36" viewBox="0 0 36 36" fill="none" xmlns="http://www.w3.org/2000/svg">
<path d="M31.8564 8.8453L19 1.42265C18.3812 1.06538 17.6188 1.06538 17 1.42265L4.14359 8.8453C3.52479 9.20257 3.14359 9.86282 3.14359 10.5774V25.4226C3.14359 26.1372 3.52479 26.7974 4.14359 27.1547L17 34.5774C17.6188 34.9346 18.3812 34.9346 19 34.5774L31.8564 27.1547C32.4752 26.7974 32.8564 26.1372 32.8564 25.4226V10.5774C32.8564 9.86282 32.4752 9.20256 31.8564 8.8453Z" fill="black" stroke="black" stroke-width="2"/>
<mask id="mask0" mask-type="alpha" maskUnits="userSpaceOnUse" x="23" y="8" width="5" height="5">
<path fill-rule="evenodd" clip-rule="evenodd" d="M23.0414 8H27.9999V12.9583H23.0414V8Z" fill="white"/>
</mask>
<g mask="url(#mask0)">
<path fill-rule="evenodd" clip-rule="evenodd" d="M27.6204 9.29529L26.7044 8.37929C26.1984 7.87329 25.3794 7.87329 24.8734 8.37929L23.0414 10.2113L25.7894 12.9583L27.6204 11.1273C28.1264 10.6213 28.1264 9.80129 27.6204 9.29529Z" fill="white"/>
</g>
<mask id="mask1" mask-type="alpha" maskUnits="userSpaceOnUse" x="8" y="11" width="17" height="17">
<path fill-rule="evenodd" clip-rule="evenodd" d="M8 11.1274H24.8729V28H8V11.1274Z" fill="white"/>
</mask>
<g mask="url(#mask1)">
<path fill-rule="evenodd" clip-rule="evenodd" d="M9.5149 23.7374C9.3719 23.8794 9.2659 24.0524 9.2029 24.2434L8.0069 27.8294C7.9729 27.9304 8.0699 28.0274 8.1709 27.9934L11.7559 26.7984C11.9479 26.7344 12.1199 26.6274 12.2629 26.4854L24.8729 13.8744L22.1249 11.1274L9.5149 23.7374Z" fill="white"/>
</g>
</svg>

<svg xmlns="http://www.w3.org/2000/svg" width="36" height="36" fill="none"><path fill="#000" stroke="#000" stroke-width="2" d="M31.856 8.845 19 1.423a2 2 0 0 0-2 0L4.144 8.845a2 2 0 0 0-1 1.732v14.846a2 2 0 0 0 1 1.732L17 34.577a2 2 0 0 0 2 0l12.856-7.422a2 2 0 0 0 1-1.732V10.577a2 2 0 0 0-1-1.732Z"/><mask id="a" width="5" height="5" x="23" y="8" mask-type="alpha" maskUnits="userSpaceOnUse"><path fill="#fff" fill-rule="evenodd" d="M23.041 8H28v4.958H23.04z" clip-rule="evenodd"/></mask><g mask="url(#a)"><path fill="#fff" fill-rule="evenodd" d="m27.62 9.295-.916-.916a1.294 1.294 0 0 0-1.83 0l-1.833 1.832 2.748 2.747 1.831-1.83a1.295 1.295 0 0 0 0-1.833" clip-rule="evenodd"/></g><mask id="b" width="17" height="17" x="8" y="11" mask-type="alpha" maskUnits="userSpaceOnUse"><path fill="#fff" fill-rule="evenodd" d="M8 11.127h16.873V28H8z" clip-rule="evenodd"/></mask><g mask="url(#b)"><path fill="#fff" fill-rule="evenodd" d="M9.515 23.737a1.3 1.3 0 0 0-.312.506L8.007 27.83a.13.13 0 0 0 .164.164l3.585-1.195c.192-.064.364-.17.507-.313l12.61-12.61-2.748-2.748z" clip-rule="evenodd"/></g></svg>
